source/work/images/artifact_keyscenarios.svg

<svg xmlns="http://www.w3.org/2000/svg" width="64" height="64" viewBox="0 0 64 64"><style type="text/css">.frame{fill:#FFFFFF;} .content{opacity:0.5;fill:#FFFFFF;}</style><path class="content" d="M38 9h-12c-1.105 0-2 .895-2 2v16c0 1.105.895 2 2 2h12c1.105 0 2-.895 2-2v-16c0-1.105-.895-2-2-2zm1 2v16l-.03.147-6.337-8.147 6.337-8.147.03.147zm-1-1c.112 0 .216.03.317.064l-6.317 8.122-6.317-8.121c.101-.035.205-.065.317-.065h12zm-12.97 17.147l-.03-.147v-16l.03-.147 6.337 8.147-6.337 8.147zm.97.853c-.112 0-.216-.03-.317-.064l6.317-8.122 6.317 8.121c-.101.035-.205.065-.317.065h-12zm-7-19h-12c-1.105 0-2 .895-2 2v16c0 1.105.895 2 2 2h12c1.105 0 2-.895 2-2v-16c0-1.105-.895-2-2-2zm1 2v16l-.03.147-6.337-8.147 6.337-8.147.03.147zm-1-1c.112 0 .216.03.317.064l-6.317 8.122-6.317-8.121c.101-.035.205-.065.317-.065h12zm-12.97 17.147l-.03-.147v-16l.03-.147 6.337 8.147-6.337 8.147zm.97.853c-.112 0-.216-.03-.317-.064l6.317-8.122 6.317 8.121c-.101.035-.205.065-.317.065h-12zm14 5.5c0 .276-.224.5-.5.5h-15c-.276 0-.5-.224-.5-.5s.224-.5.5-.5h15c.276 0 .5.224.5.5zm0 3c0 .276-.224.5-.5.5h-15c-.276 0-.5-.224-.5-.5s.224-.5.5-.5h15c.276 0 .5.224.5.5zm0 3c0 .276-.224.5-.5.5h-15c-.276 0-.5-.224-.5-.5s.224-.5.5-.5h15c.276 0 .5.224.5.5zm0 3c0 .276-.224.5-.5.5h-15c-.276 0-.5-.224-.5-.5s.224-.5.5-.5h15c.276 0 .5.224.5.5zm-4 3c0 .276-.224.5-.5.5h-11c-.276 0-.5-.224-.5-.5s.224-.5.5-.5h11c.276 0 .5.224.5.5zm23-12c0 .276-.224.5-.5.5h-15c-.276 0-.5-.224-.5-.5s.224-.5.5-.5h15c.276 0 .5.224.5.5zm0 3c0 .276-.224.5-.5.5h-15c-.276 0-.5-.224-.5-.5s.224-.5.5-.5h15c.276 0 .5.224.5.5zm0 3c0 .276-.224.5-.5.5h-15c-.276 0-.5-.224-.5-.5s.224-.5.5-.5h15c.276 0 .5.224.5.5zm0 3c0 .276-.224.5-.5.5h-15c-.276 0-.5-.224-.5-.5s.224-.5.5-.5h15c.276 0 .5.224.5.5zm-4 3c0 .276-.224.5-.5.5h-11c-.276 0-.5-.224-.5-.5s.224-.5.5-.5h11c.276 0 .5.224.5.5zm21-36.5h-12c-1.105 0-2 .895-2 2v16c0 1.105.895 2 2 2h12c1.105 0 2-.895 2-2v-16c0-1.105-.895-2-2-2zm1 2v16l-.03.147-6.337-8.147 6.337-8.147.03.147zm-1-1c.112 0 .216.03.317.064l-6.317 8.122-6.317-8.121c.101-.035.205-.065.317-.065h12zm-12.97 17.147l-.03-.147v-16l.03-.147 6.337 8.147-6.337 8.147zm.97.853c-.112 0-.216-.03-.317-.064l6.317-8.122 6.317 8.121c-.101.035-.205.065-.317.065h-12zm14 5.5c0 .276-.224.5-.5.5h-15c-.276 0-.5-.224-.5-.5s.224-.5.5-.5h15c.276 0 .5.224.5.5zm0 3c0 .276-.224.5-.5.5h-15c-.276 0-.5-.224-.5-.5s.224-.5.5-.5h15c.276 0 .5.224.5.5zm0 3c0 .276-.224.5-.5.5h-15c-.276 0-.5-.224-.5-.5s.224-.5.5-.5h15c.276 0 .5.224.5.5zm0 3c0 .276-.224.5-.5.5h-15c-.276 0-.5-.224-.5-.5s.224-.5.5-.5h15c.276 0 .5.224.5.5zm-4 3c0 .276-.224.5-.5.5h-11c-.276 0-.5-.224-.5-.5s.224-.5.5-.5h11c.276 0 .5.224.5.5zm-31.646-26.854c.195.195.195.512 0 .707l-1 1c-.098.098-.226.147-.354.147s-.256-.049-.354-.146c-.195-.195-.195-.512 0-.707l.647-.647-.646-.646c-.195-.195-.195-.512 0-.707s.512-.195.707 0l1 .999zm19 0c.195.195.195.512 0 .707l-1 1c-.098.098-.226.147-.354.147s-.256-.049-.354-.146c-.195-.195-.195-.512 0-.707l.647-.647-.646-.646c-.195-.195-.195-.512 0-.707s.512-.195.707 0l1 .999z"/><path class="frame" d="M60 4h-56c-1.657 0-3 1.343-3 3v49.9c0 1.657 1.343 3 3 3h56c1.657 0 3-1.343 3-3v-49.9c0-1.657-1.343-3-3-3zm-58 3c0-1.103.897-2 2-2h56c1.103 0 2 .897 2 2v43.9c0 1.103-.897 2-2 2h-56c-1.103 0-2-.897-2-2v-43.9zm0 46.121c.532.479 1.228.779 2 .779h56c.772 0 1.468-.3 2-.779v.779c0 1.103-.897 2-2 2h-56c-1.103 0-2-.897-2-2v-.779zm58 5.779h-56c-1.103 0-2-.897-2-2v-.779c.532.479 1.228.779 2 .779h56c.772 0 1.468-.3 2-.779v.779c0 1.103-.897 2-2 2z"/></svg>

<?xml version="1.0" encoding="utf-8"?>
<!-- Generator: Adobe Illustrator 19.2.1, SVG Export Plug-In . SVG Version: 6.00 Build 0)  -->
<svg version="1.1" id="icons" xmlns="http://www.w3.org/2000/svg" xmlns:xlink="http://www.w3.org/1999/xlink" x="0px" y="0px"
	 width="64px" height="64px" viewBox="0 0 64 64" style="enable-background:new 0 0 64 64;" xml:space="preserve">
<style type="text/css">
	.frame{fill:#FFFFFF;}
	.content{opacity:0.5;fill:#FFFFFF;}
</style>
<path class="content" d="M38,9H26c-1.105,0-2,0.895-2,2v16c0,1.105,0.895,2,2,2h12c1.105,0,2-0.895,2-2V11C40,9.895,39.105,9,38,9z
	 M39,11v16c0,0.052-0.022,0.097-0.03,0.147L32.633,19l6.337-8.147C38.978,10.903,39,10.948,39,11z M38,10
	c0.112,0,0.216,0.03,0.317,0.064L32,18.186l-6.317-8.121C25.784,10.03,25.888,10,26,10H38z M25.03,27.147
	C25.022,27.097,25,27.052,25,27V11c0-0.052,0.022-0.097,0.03-0.147L31.367,19L25.03,27.147z M26,28c-0.112,0-0.216-0.03-0.317-0.064
	L32,19.814l6.317,8.121C38.216,27.97,38.112,28,38,28H26z M19,9H7c-1.105,0-2,0.895-2,2v16c0,1.105,0.895,2,2,2h12
	c1.105,0,2-0.895,2-2V11C21,9.895,20.105,9,19,9z M20,11v16c0,0.052-0.022,0.097-0.03,0.147L13.633,19l6.337-8.147
	C19.978,10.903,20,10.948,20,11z M19,10c0.112,0,0.216,0.03,0.317,0.064L13,18.186l-6.317-8.121C6.784,10.03,6.888,10,7,10H19z
	 M6.03,27.147C6.022,27.097,6,27.052,6,27V11c0-0.052,0.022-0.097,0.03-0.147L12.367,19L6.03,27.147z M7,28
	c-0.112,0-0.216-0.03-0.317-0.064L13,19.814l6.317,8.121C19.216,27.97,19.112,28,19,28H7z M21,33.5c0,0.276-0.224,0.5-0.5,0.5h-15
	C5.224,34,5,33.776,5,33.5S5.224,33,5.5,33h15C20.776,33,21,33.224,21,33.5z M21,36.5c0,0.276-0.224,0.5-0.5,0.5h-15
	C5.224,37,5,36.776,5,36.5S5.224,36,5.5,36h15C20.776,36,21,36.224,21,36.5z M21,39.5c0,0.276-0.224,0.5-0.5,0.5h-15
	C5.224,40,5,39.776,5,39.5S5.224,39,5.5,39h15C20.776,39,21,39.224,21,39.5z M21,42.5c0,0.276-0.224,0.5-0.5,0.5h-15
	C5.224,43,5,42.776,5,42.5S5.224,42,5.5,42h15C20.776,42,21,42.224,21,42.5z M17,45.5c0,0.276-0.224,0.5-0.5,0.5h-11
	C5.224,46,5,45.776,5,45.5S5.224,45,5.5,45h11C16.776,45,17,45.224,17,45.5z M40,33.5c0,0.276-0.224,0.5-0.5,0.5h-15
	c-0.276,0-0.5-0.224-0.5-0.5s0.224-0.5,0.5-0.5h15C39.776,33,40,33.224,40,33.5z M40,36.5c0,0.276-0.224,0.5-0.5,0.5h-15
	c-0.276,0-0.5-0.224-0.5-0.5s0.224-0.5,0.5-0.5h15C39.776,36,40,36.224,40,36.5z M40,39.5c0,0.276-0.224,0.5-0.5,0.5h-15
	c-0.276,0-0.5-0.224-0.5-0.5s0.224-0.5,0.5-0.5h15C39.776,39,40,39.224,40,39.5z M40,42.5c0,0.276-0.224,0.5-0.5,0.5h-15
	c-0.276,0-0.5-0.224-0.5-0.5s0.224-0.5,0.5-0.5h15C39.776,42,40,42.224,40,42.5z M36,45.5c0,0.276-0.224,0.5-0.5,0.5h-11
	c-0.276,0-0.5-0.224-0.5-0.5s0.224-0.5,0.5-0.5h11C35.776,45,36,45.224,36,45.5z M57,9H45c-1.105,0-2,0.895-2,2v16
	c0,1.105,0.895,2,2,2h12c1.105,0,2-0.895,2-2V11C59,9.895,58.105,9,57,9z M58,11v16c0,0.052-0.022,0.097-0.03,0.147L51.633,19
	l6.337-8.147C57.978,10.903,58,10.948,58,11z M57,10c0.112,0,0.216,0.03,0.317,0.064L51,18.186l-6.317-8.121
	C44.784,10.03,44.888,10,45,10H57z M44.03,27.147C44.022,27.097,44,27.052,44,27V11c0-0.052,0.022-0.097,0.03-0.147L50.367,19
	L44.03,27.147z M45,28c-0.112,0-0.216-0.03-0.317-0.064L51,19.814l6.317,8.121C57.216,27.97,57.112,28,57,28H45z M59,33.5
	c0,0.276-0.224,0.5-0.5,0.5h-15c-0.276,0-0.5-0.224-0.5-0.5s0.224-0.5,0.5-0.5h15C58.776,33,59,33.224,59,33.5z M59,36.5
	c0,0.276-0.224,0.5-0.5,0.5h-15c-0.276,0-0.5-0.224-0.5-0.5s0.224-0.5,0.5-0.5h15C58.776,36,59,36.224,59,36.5z M59,39.5
	c0,0.276-0.224,0.5-0.5,0.5h-15c-0.276,0-0.5-0.224-0.5-0.5s0.224-0.5,0.5-0.5h15C58.776,39,59,39.224,59,39.5z M59,42.5
	c0,0.276-0.224,0.5-0.5,0.5h-15c-0.276,0-0.5-0.224-0.5-0.5s0.224-0.5,0.5-0.5h15C58.776,42,59,42.224,59,42.5z M55,45.5
	c0,0.276-0.224,0.5-0.5,0.5h-11c-0.276,0-0.5-0.224-0.5-0.5s0.224-0.5,0.5-0.5h11C54.776,45,55,45.224,55,45.5z M23.354,18.646
	c0.195,0.195,0.195,0.512,0,0.707l-1,1C22.256,20.451,22.128,20.5,22,20.5s-0.256-0.049-0.354-0.146
	c-0.195-0.195-0.195-0.512,0-0.707L22.293,19l-0.646-0.646c-0.195-0.195-0.195-0.512,0-0.707s0.512-0.195,0.707,0L23.354,18.646z
	 M42.354,18.646c0.195,0.195,0.195,0.512,0,0.707l-1,1C41.256,20.451,41.128,20.5,41,20.5s-0.256-0.049-0.354-0.146
	c-0.195-0.195-0.195-0.512,0-0.707L41.293,19l-0.646-0.646c-0.195-0.195-0.195-0.512,0-0.707s0.512-0.195,0.707,0L42.354,18.646z"/>
<path class="frame" d="M60,4H4C2.343,4,1,5.343,1,7v43.375V50.9v2.475V53.9v3c0,1.657,1.343,3,3,3h56c1.657,0,3-1.343,3-3v-3v-0.525
	V50.9v-0.525V7C63,5.343,61.657,4,60,4z M2,7c0-1.103,0.897-2,2-2h56c1.103,0,2,0.897,2,2v43.9c0,1.103-0.897,2-2,2H4
	c-1.103,0-2-0.897-2-2V7z M2,53.121C2.532,53.6,3.228,53.9,4,53.9h56c0.772,0,1.468-0.3,2-0.779V53.9c0,1.103-0.897,2-2,2H4
	c-1.103,0-2-0.897-2-2V53.121z M60,58.9H4c-1.103,0-2-0.897-2-2v-0.779C2.532,56.6,3.228,56.9,4,56.9h56c0.772,0,1.468-0.3,2-0.779
	V56.9C62,58.003,61.103,58.9,60,58.9z"/>
</svg>
